X: 7536
T: Cock And The Hen, The
R: slip jig
M: 9/8
K: Bminor
B3 BAB f2A|B3 BAB dBA|B3 BAB f2g|af/e/d edB dBA|
B3 BAB f2A|B3 BAB dBA|B3 BAB f2g|afd edB dBA||
afd def g3|afd edB dBA|afd def g2e|fed edB dBA|
afd def g3|afd edB dBA|afd def g2e|fed edB dBA||

